icons/svg/lastfm.svg

﻿<?xml version="1.0" encoding="utf-8"?>
<!DOCTYPE svg PUBLIC "-//W3C//DTD SVG 1.1//EN" "http://www.w3.org/Graphics/SVG/1.1/DTD/svg11.dtd">
<svg xmlns="http://www.w3.org/2000/svg" xmlns:xlink="http://www.w3.org/1999/xlink" version="1.1" baseProfile="full" width="24" height="24" viewBox="0 0 24.00 24.00" enable-background="new 0 0 24.00 24.00" xml:space="preserve">
	<path fill="#000000" fill-opacity="1" stroke-width="0.2" stroke-linejoin="round" d="M 18.0067,17.9313C 15.9245,17.9229 14.8133,16.8971 14.0422,15.0898L 13.8222,14.5967L 11.92,10.2311C 11.2911,8.68579 9.72445,7.64178 7.9578,7.64178C 5.56891,7.64178 3.63111,9.59357 3.63111,12.0007C 3.63111,14.408 5.56891,16.3598 7.9578,16.3598C 9.62446,16.3598 11.0756,15.4109 11.7978,14.0196L 12.5689,15.8058C 11.4756,17.1465 9.81557,18 7.9578,18C 4.6689,18 2.00001,15.3158 2.00001,12.0007C 2.00001,8.68757 4.6689,6.00001 7.9578,6.00001C 10.4422,6.00001 12.4489,7.33535 13.4667,9.7018C 13.5444,9.88535 14.5444,12.2402 15.4178,14.2442C 15.9578,15.4847 16.4178,16.3071 17.9111,16.3582C 19.38,16.4089 20.3867,15.5093 20.3867,14.372C 20.3867,13.2609 19.62,12.994 18.3222,12.5596C 15.9911,11.7862 14.7867,11.0093 14.7867,9.14802C 14.7867,7.33224 16.0134,6.12135 18.0067,6.12135C 19.3067,6.12135 20.2444,6.70314 20.8933,7.86312L 19.62,8.51846C 19.1378,7.8418 18.6089,7.57467 17.9356,7.57467C 17,7.57467 16.3333,8.23024 16.3333,9.10179C 16.3333,10.3391 17.4311,10.526 18.9689,11.034C 21.0378,11.7125 22,12.4873 22,14.4227C 22,16.4549 20.2689,17.9347 18.0067,17.9313 Z "/>
</svg>

<svg xmlns="http://www.w3.org/2000/svg" version="1.1" baseProfile="full" width="24" height="24" viewBox="0 0 24.00 24.00" xml:space="preserve"><path fill="#000" fill-opacity="1" stroke-width=".2" stroke-linejoin="round" d="M18.007 17.93c-2.083-.007-3.194-1.033-3.965-2.84l-.22-.493-1.902-4.366c-.63-1.544-2.196-2.588-3.962-2.588-2.39 0-4.327 1.952-4.327 4.36 0 2.406 1.94 4.358 4.328 4.358 1.666 0 3.118-.95 3.84-2.34l.77 1.786C11.477 17.146 9.817 18 7.96 18 4.668 18 2 15.316 2 12 2 8.69 4.67 6 7.958 6c2.484 0 4.49 1.335 5.51 3.702.076.183 1.076 2.538 1.95 4.542.54 1.24 1 2.063 2.493 2.114 1.47.05 2.477-.85 2.477-1.986 0-1.11-.767-1.378-2.065-1.812-2.33-.774-3.535-1.55-3.535-3.412 0-1.816 1.226-3.027 3.22-3.027 1.3 0 2.237.583 2.886 1.743l-1.273.655c-.482-.676-1.01-.943-1.684-.943-.936 0-1.603.655-1.603 1.527 0 1.237 1.098 1.424 2.636 1.932 2.068.678 3.03 1.453 3.03 3.39 0 2.03-1.73 3.51-3.993 3.507z"/></svg>
